packages/kaspersky-hexa-ui-icons/src/iconsSVGs/16/Facebook2.svg

<svg width="16" height="16" viewBox="0 0 16 16" fill="none" xmlns="http://www.w3.org/2000/svg">
<path d="M9.23298 15V8.61381H11.6721L12.0373 6.12522H9.23304V4.5364C9.23304 3.81581 9.46088 3.32472 10.6363 3.32472L12.136 3.32433V1.09828C11.8768 1.06769 10.9867 1 9.95083 1C7.78873 1 6.3087 2.1601 6.3087 4.28993V6.12523H3.86328V8.61382H6.30864V15H9.23298Z" fill="black"/>
</svg>

<svg xmlns="http://www.w3.org/2000/svg" width="16" height="16" fill="none" viewBox="0 0 16 16"><path fill="#000" d="M9.233 15V8.6138h2.4391l.3652-2.4886H9.233V4.5364c0-.7206.2279-1.2117 1.4033-1.2117l1.4997-.0004v-2.226C11.8768 1.0677 10.9867 1 9.9508 1c-2.162 0-3.6421 1.1601-3.6421 3.29v1.8352H3.8633v2.4886h2.4453V15z"/></svg>
